X:1
T:Aria
T:Aria
T:Sonata K. 32
T:Domenico Scarlatti (1685-1757)
C:Domenico Scarlatti (1685-1757)
%%score { 1 | ( 2 3 ) }
L:1/8
Q:1/8=70
M:3/8
K:F
V:1 treble nm="Piano" snm="Pno."
V:2 bass 
V:3 bass 
V:1
 d/4e/4f/ ed | b^cd | e/4f/4g/ fe | a^GA | ^c/4d/4e/ dTc | dAG | F/G/FE | D3 :: A/4B/4c/ BA | %9
 B^fg | G/4A/4B/ AG | Aef | F/4G/4A/ GF | e/4f/4g/ fe | D/4E/4F/ ED | T^g a2 | A/4B/4c/ BA | B^CD | %18
 ^c/4d/4e/ dTc | d^CD | e/4f/4g/ fe | a^CD | e/4f/4g/ dT^c | d3 :| %24
V:2
 [A,D]3 | [B,D]3 | [A,^CE]3 | [A,D]3 | ^C3 | F,F,,G,, | A,,2 A,, | D,,3 :: [A,D]3 | [B,D]3 | %10
 [G,C]3 | F,C,F,, | A,3 | B,D^C | B,2 F, | E,A,/G,/F,/E,/ | [A,D]3 | B,3 | ^C3 | B,A,B, | [E,A,]3 | %21
 D,E,F, | G,A,A,, | D,3 :| %24
V:3
 D,3 | G,3 | G,3 | F,3 | [E,G,A,]3 | D x2 | x3 | x3 :: D,3 | G,2 =F, | E,2 C, | x3 | F,3 | G,2 A, | %14
 x3 | x3 | F,3 | G,3 | A,3 | B,,3 | ^C,3 | [F,A,] x2 | x3 | x3 :| %24

